src/lib/packages/icons/src/assets/line/stopwatch-check.svg

<svg width="24" height="24" viewBox="0 0 24 24" fill="none" xmlns="http://www.w3.org/2000/svg">
<path d="M17.5979 7.96301L18.531 7.03003C18.824 6.73703 18.824 6.26199 18.531 5.96899C18.238 5.67599 17.763 5.67599 17.47 5.96899L16.4919 6.94702C15.1039 5.88702 13.377 5.25 11.5 5.25C6.951 5.25 3.25 8.951 3.25 13.5C3.25 18.049 6.951 21.75 11.5 21.75C16.049 21.75 19.75 18.049 19.75 13.5C19.75 11.368 18.9299 9.42901 17.5979 7.96301ZM11.5 20.25C7.778 20.25 4.75 17.222 4.75 13.5C4.75 9.778 7.778 6.75 11.5 6.75C15.222 6.75 18.25 9.778 18.25 13.5C18.25 17.222 15.222 20.25 11.5 20.25ZM8.25 3C8.25 2.586 8.586 2.25 9 2.25H14C14.414 2.25 14.75 2.586 14.75 3C14.75 3.414 14.414 3.75 14 3.75H9C8.586 3.75 8.25 3.414 8.25 3ZM14.53 11.303C14.823 11.596 14.823 12.071 14.53 12.364L11.197 15.697C11.051 15.843 10.859 15.917 10.667 15.917C10.475 15.917 10.283 15.844 10.137 15.697L8.46997 14.03C8.17697 13.738 8.17697 13.262 8.46997 12.969C8.76297 12.676 9.23801 12.676 9.53101 12.969L10.668 14.105L13.4709 11.302C13.7629 11.01 14.237 11.01 14.53 11.303Z" fill="currentColor"/>
</svg>

<svg xmlns="http://www.w3.org/2000/svg" width="24" height="24" fill="none"><path fill="currentColor" d="m17.598 7.963.933-.933a.75.75 0 0 0-1.061-1.061l-.978.978A8.197 8.197 0 0 0 11.5 5.25c-4.549 0-8.25 3.701-8.25 8.25 0 4.549 3.701 8.25 8.25 8.25 4.549 0 8.25-3.701 8.25-8.25 0-2.132-.82-4.071-2.152-5.537ZM11.5 20.25a6.758 6.758 0 0 1-6.75-6.75 6.758 6.758 0 0 1 6.75-6.75 6.758 6.758 0 0 1 6.75 6.75 6.758 6.758 0 0 1-6.75 6.75ZM8.25 3A.75.75 0 0 1 9 2.25h5a.75.75 0 0 1 0 1.5H9A.75.75 0 0 1 8.25 3Zm6.28 8.303a.75.75 0 0 1 0 1.061l-3.333 3.333a.748.748 0 0 1-1.06 0L8.47 14.03a.75.75 0 1 1 1.061-1.061l1.137 1.136 2.803-2.803a.749.749 0 0 1 1.059.001Z"/></svg>
